sharp/svg/vibration.svg

<svg xmlns="http://www.w3.org/2000/svg" width="24" height="24"><path fill="none" d="M0 0h24v24H0V0z"/><g fill="currentColor"><path d="M0 15h2V9H0v6zm3 2h2V7H3v10zm19-8v6h2V9h-2zm-3 8h2V7h-2v10zM18 3H6v18h12V3zm-2 16H8V5h8v14z"/></g></svg>

<?xml version="1.0" encoding="utf-8"?>
<!-- Generator: Adobe Illustrator 19.1.0, SVG Export Plug-In . SVG Version: 6.00 Build 0)  -->
<svg version="1.1" xmlns="http://www.w3.org/2000/svg" xmlns:xlink="http://www.w3.org/1999/xlink" x="0px" y="0px" width="24px"
	 height="24px" viewBox="0 0 24 24" enable-background="new 0 0 24 24" xml:space="preserve">
<g id="Bounding_Boxes">
	<g id="ui_x5F_spec_x5F_header_copy_2">
	</g>
	<path fill="none" d="M0,0h24v24H0V0z"/>
</g>
<g id="Sharp" fill="currentColor">
	<path d="M0,15h2V9H0V15z M3,17h2V7H3V17z M22,9v6h2V9H22z M19,17h2V7h-2V17z M18,3H6v18h12V3z M16,19H8V5h8V19z"/>
</g>
</svg>
